X:1
T:Jack Tar (1)
M:4/4
L:1/4
K:G
 D| B, D G G| G2 B B| G G E D| B,3| D| B,- D G B| B- d c B| B A3-|\
 A3|B/2-c/2| d d c G| E2 A B| c E F E| D3| D| B,- D G- B| c- A G F|\
 G G2||
